assets/img/components/skipnav-header.svg

<svg xmlns="http://www.w3.org/2000/svg" width="578" height="146" fill="none" viewBox="0 0 578 146"><path fill="#286ad8" d="M183.424 145.105c-21.773 0-39.424-17.852-39.424-39.875V.105h290v145z"/><path fill="#286ad8" d="M182.893 145.292c-21.773 0-39.424-17.852-39.424-39.875V.292h290v145z"/><path fill="#286ad8" d="M145 39.98v105.125c-80.081 0-145-64.919-145-145h105.125C127.147.105 145 17.958 145 39.98M505.5 145c40.041 0 72.5-32.459 72.5-72.5S545.541 0 505.5 0 433 32.46 433 72.5s32.459 72.5 72.5 72.5"/><path fill="#1545bb" d="M314.233 98.105c1.033 0 1.943.522 2.483 1.315l45.835 45.872H225.23l-22.954-23.084a3 3 0 0 1-1.464-2.574v-18.529a3 3 0 0 1 3-3z" opacity=".4" style="mix-blend-mode:multiply"/><rect width="116.421" height="24.529" x="200.812" y="98.105" fill="#5187df" rx="3"/><path fill="#1545bb" d="M237.128 108q.062.001.122.006.06-.005.122-.006h4.256c1.31.001 2.372 1.12 2.372 2.5 0 1.381-1.062 2.5-2.372 2.5h-4.256q-.061-.002-.122-.007c-.041.002-.081.007-.122.007l-23.756-.001c-1.31-.001-2.372-1.12-2.372-2.5 0-1.381 1.062-2.5 2.372-2.5zM248 110.5c0-1.381 1.062-2.5 2.373-2.5h15.254c1.311 0 2.373 1.119 2.373 2.5s-1.062 2.5-2.373 2.5h-15.254c-1.311 0-2.373-1.119-2.373-2.5M272 110.5c0-1.381 1.062-2.5 2.373-2.5h29.754c1.311 0 2.373 1.119 2.373 2.5s-1.062 2.5-2.373 2.5h-29.754c-1.311 0-2.373-1.119-2.373-2.5"/></svg>

<svg width="578" height="146" viewBox="0 0 578 146" fill="none" xmlns="http://www.w3.org/2000/svg">
<path d="M183.424 145.105C161.651 145.105 144 127.253 144 105.23V0.10498H434V145.105H183.424Z" fill="#286AD8"/>
<path d="M182.893 145.292C161.12 145.292 143.469 127.44 143.469 105.417V0.29248H433.469V145.292H182.893Z" fill="#286AD8"/>
<path d="M145 39.98V145.105C64.9187 145.105 0 80.1863 0 0.10498H105.125C127.147 0.10498 145 17.9576 145 39.98Z" fill="#286AD8"/>
<path d="M505.5 145C545.541 145 578 112.541 578 72.5C578 32.4594 545.541 0 505.5 0C465.459 0 433 32.4594 433 72.5C433 112.541 465.459 145 505.5 145Z" fill="#286AD8"/>
<g style="mix-blend-mode:multiply" opacity="0.4">
<path d="M314.233 98.105C315.266 98.105 316.176 98.6266 316.716 99.4204L362.551 145.292H225.23L202.276 122.208C201.401 121.684 200.813 120.729 200.812 119.634V101.105C200.812 99.4481 202.156 98.105 203.812 98.105H314.233Z" fill="#1545BB"/>
</g>
<rect x="200.812" y="98.105" width="116.421" height="24.529" rx="3" fill="#5187DF"/>
<path d="M237.128 108C237.169 108 237.21 108.004 237.25 108.006C237.29 108.004 237.331 108 237.372 108H241.628C242.938 108.001 244 109.12 244 110.5C244 111.881 242.938 113 241.628 113H237.372C237.331 113 237.291 112.995 237.25 112.993C237.209 112.995 237.169 113 237.128 113L213.372 112.999C212.062 112.998 211 111.879 211 110.499C211 109.118 212.062 107.999 213.372 107.999L237.128 108Z" fill="#1545BB"/>
<path d="M248 110.5C248 109.119 249.062 108 250.373 108H265.627C266.938 108 268 109.119 268 110.5C268 111.881 266.938 113 265.627 113H250.373C249.062 113 248 111.881 248 110.5Z" fill="#1545BB"/>
<path d="M272 110.5C272 109.119 273.062 108 274.373 108H304.127C305.438 108 306.5 109.119 306.5 110.5C306.5 111.881 305.438 113 304.127 113H274.373C273.062 113 272 111.881 272 110.5Z" fill="#1545BB"/>
</svg>
